X: 4077
M: C|
L: 1/8
K: D
dfeg fdcA | dfeg faaf |
gefd ecBA | (B/c/d) (AF) AddA |\
dfeg fdcA | dfeg faaf |\
(3gab (3fga (3efd (3cBA | (3Bcd (3AGF (A<d) d |]


